X:218
T:Farewell to the Troubles of the World
R:jig
M:6/8
L:1/8
K:D
d3 dcA | GFG AFD | F3 GFD | FGA =c2A |
dec dcA | G3 AFD | FEF GEA |1 DED DFA :|2 DED D2E |:
FED FGA | =cdB cAG | Afe dec | ABc d2=c |
B3 d=cA | GFG AFD | FEF GEA |1 DED D2E :|2 DED DFA |]
